icons/lines/bag-tick-two.svg

<svg xmlns="http://www.w3.org/2000/svg" width="24" height="24" viewBox="0 0 24 24" fill="none" stroke="currentColor" stroke-width="2" stroke-linecap="round" stroke-linejoin="round" >
  <path d="M12 19C14.2091 19 16 17.2091 16 15C16 12.7909 14.2091 11 12 11C9.79086 11 8 12.7909 8 15C8 17.2091 9.79086 19 12 19Z" stroke-miterlimit="10"/>
  <path d="M10.4399 15L11.0899 15.65C11.2799 15.84 11.5899 15.85 11.7799 15.66L13.5599 14.02"/>
  <path d="M8.99983 22H14.9998C19.0198 22 19.7398 20.39 19.9498 18.43L20.6998 12.43C20.9698 9.99 20.2698 8 15.9998 8H7.99983C3.72983 8 3.02983 9.99 3.29983 12.43L4.04983 18.43C4.25983 20.39 4.97983 22 8.99983 22Z" stroke-miterlimit="10"/>
  <path d="M7.5 7.67001V6.70001C7.5 4.45001 9.31 2.24001 11.56 2.03001C14.24 1.77001 16.5 3.88001 16.5 6.51001V7.89001" stroke-miterlimit="10"/>
  </svg>

<svg xmlns="http://www.w3.org/2000/svg" width="24" height="24" viewBox="0 0 24 24" fill="none" stroke="currentColor" stroke-width="2" stroke-linecap="round" stroke-linejoin="round">
  <path d="m10.44 15 .65.65a.49.49 0 0 0 .69.01l1.78-1.64" />
  <path d="M15 22c4.02 0 4.74-1.61 4.95-3.57l.75-6C20.97 9.99 20.27 8 16 8H8c-4.27 0-4.97 1.99-4.7 4.43l.75 6C4.26 20.39 4.98 22 9 22z" />
  <path d="M7.5 7.67V6.7c0-2.25 1.81-4.46 4.06-4.67a4.5 4.5 0 0 1 4.94 4.48v1.38" />
  <circle cx="12" cy="15" r="4" />
</svg>
